assets/sonr-icons/device-iphone.svg

<svg xmlns="http://www.w3.org/2000/svg" width="24" height="24" fill="none"><path fill="currentColor" d="M14.241 2H9.758c-.805 0-1.469 0-2.011.044-.562.046-1.078.145-1.564.391a4 4 0 0 0-1.748 1.748c-.247.485-.346 1.002-.391 1.565C4 6.289 4 6.953 4 7.759v8.482c0 .805 0 1.469.044 2.011.046.562.145 1.078.391 1.564a4 4 0 0 0 1.748 1.748c.485.247 1.002.346 1.564.391.541.044 1.205.044 2.011.044h4.483c.805 0 1.469 0 2.011-.044.562-.046 1.078-.145 1.564-.391a4 4 0 0 0 1.748-1.748c.247-.485.346-1.002.391-1.564.044-.541.044-1.205.044-2.011V7.759c0-.805 0-1.469-.044-2.011-.046-.562-.145-1.078-.391-1.564a4 4 0 0 0-1.748-1.748c-.485-.248-1.002-.346-1.564-.391C15.71 2.001 15.047 2 14.241 2M7.092 4.218c.157-.08.38-.145.819-.181.293-.024.644-.033 1.089-.036v.998a1 1 0 0 0 1 1h4a1 1 0 0 0 1-1v-.998c.445.003.796.012 1.089.036.439.036.662.101.819.181.377.192.683.498.874.874.08.157.145.38.181.819.037.45.038 1.032.038 1.889v8.4c0 .856-.001 1.439-.038 1.889-.036.439-.101.662-.181.819a2 2 0 0 1-.874.874c-.157.08-.38.145-.819.181-.45.037-1.033.037-1.889.037H9.8c-.857 0-1.439-.001-1.889-.037-.439-.036-.662-.101-.819-.181a2 2 0 0 1-.874-.874c-.079-.157-.145-.38-.181-.819C6 17.639 6 17.056 6 16.2V7.8c0-.856.001-1.438.037-1.889.036-.439.101-.662.181-.819.192-.377.498-.683.874-.874"/></svg>

<svg xmlns="http://www.w3.org/2000/svg" width="24" height="24" fill="none" viewBox="0 0 24 24"><path fill="#000" d="M14.241 2H9.758C8.953 2 8.289 2 7.747 2.044C7.185 2.09 6.669 2.189 6.183 2.435C5.43 2.818 4.819 3.43 4.435 4.183C4.188 4.668 4.089 5.185 4.044 5.748C4 6.289 4 6.953 4 7.759V16.241C4 17.046 4 17.71 4.044 18.252C4.09 18.814 4.189 19.33 4.435 19.816C4.818 20.568 5.43 21.18 6.183 21.564C6.668 21.811 7.185 21.91 7.747 21.955C8.288 21.999 8.952 21.999 9.758 21.999H14.241C15.046 21.999 15.71 21.999 16.252 21.955C16.814 21.909 17.33 21.81 17.816 21.564C18.568 21.181 19.18 20.569 19.564 19.816C19.811 19.331 19.91 18.814 19.955 18.252C19.999 17.711 19.999 17.047 19.999 16.241V7.759C19.999 6.954 19.999 6.29 19.955 5.748C19.909 5.186 19.81 4.67 19.564 4.184C19.181 3.431 18.569 2.82 17.816 2.436C17.331 2.188 16.814 2.09 16.252 2.045C15.71 2.001 15.047 2 14.241 2ZM7.092 4.218C7.249 4.138 7.472 4.073 7.911 4.037C8.204 4.013 8.555 4.004 9 4.001V4.999C9 5.551 9.448 5.999 10 5.999H14C14.552 5.999 15 5.551 15 4.999V4.001C15.445 4.004 15.796 4.013 16.089 4.037C16.528 4.073 16.751 4.138 16.908 4.218C17.285 4.41 17.591 4.716 17.782 5.092C17.862 5.249 17.927 5.472 17.963 5.911C18 6.361 18.001 6.943 18.001 7.8V16.2C18.001 17.056 18 17.639 17.963 18.089C17.927 18.528 17.862 18.751 17.782 18.908C17.59 19.285 17.284 19.591 16.908 19.782C16.751 19.862 16.528 19.927 16.089 19.963C15.639 20 15.056 20 14.2 20H9.8C8.943 20 8.361 19.999 7.911 19.963C7.472 19.927 7.249 19.862 7.092 19.782C6.715 19.59 6.409 19.284 6.218 18.908C6.139 18.751 6.073 18.528 6.037 18.089C6 17.639 6 17.056 6 16.2V7.8C6 6.944 6.001 6.362 6.037 5.911C6.073 5.472 6.138 5.249 6.218 5.092C6.41 4.715 6.716 4.409 7.092 4.218Z"/></svg>
